assets/images/svg/icon-phone.svg

<svg xmlns="http://www.w3.org/2000/svg" viewBox="0 0 37 37" fill="none"><path d="M12.8873 28.8093L13.3683 27.9326L12.8873 28.8093ZM12.1771 28.0445L13.081 27.6168L12.1771 28.0445ZM24.8229 28.0445L23.919 27.6168L24.8229 28.0445ZM24.1127 28.8093L23.6317 27.9326L24.1127 28.8093ZM24.1127 8.19074L23.6317 9.06743L24.1127 8.19074ZM24.8229 8.95552L23.919 9.38319L24.8229 8.95552ZM12.8873 8.19074L13.3683 9.06743L12.8873 8.19074ZM12.1771 8.95552L13.081 9.38319L12.1771 8.95552ZM18.3223 25.019C17.77 25.019 17.3223 25.4667 17.3223 26.019C17.3223 26.5713 17.77 27.019 18.3223 27.019V25.019ZM18.3304 27.019C18.8827 27.019 19.3304 26.5713 19.3304 26.019C19.3304 25.4667 18.8827 25.019 18.3304 25.019V27.019ZM15.8848 10.7053L14.9016 10.8879L15.0534 11.7053H15.8848V10.7053ZM21.5723 10.7053V11.7053H22.4037L22.5555 10.8879L21.5723 10.7053ZM14.6 9H22.4V7H14.6V9ZM24 10.8V26.2H26V10.8H24ZM22.4 28H14.6V30H22.4V28ZM13 26.2V10.8H11V26.2H13ZM14.6 28C14.1272 28 13.8373 27.9991 13.6204 27.98C13.4174 27.9621 13.3714 27.9342 13.3683 27.9326L12.4062 29.686C12.7508 29.875 13.1061 29.9425 13.4451 29.9723C13.77 30.0009 14.1627 30 14.6 30V28ZM11 26.2C11 26.6747 10.9993 27.0866 11.025 27.425C11.0514 27.7732 11.11 28.1273 11.2732 28.4722L13.081 27.6168C13.0671 27.5874 13.0371 27.5093 13.0193 27.2737C13.0007 27.0285 13 26.7054 13 26.2H11ZM13.3683 27.9326C13.2559 27.8709 13.151 27.7646 13.081 27.6168L11.2732 28.4722C11.5148 28.9829 11.9071 29.4121 12.4062 29.686L13.3683 27.9326ZM24 26.2C24 26.7054 23.9993 27.0285 23.9807 27.2737C23.9629 27.5093 23.9329 27.5874 23.919 27.6168L25.7268 28.4722C25.89 28.1273 25.9486 27.7732 25.975 27.425C26.0007 27.0866 26 26.6747 26 26.2H24ZM22.4 30C22.8373 30 23.23 30.0009 23.5549 29.9723C23.8939 29.9425 24.2492 29.875 24.5938 29.686L23.6317 27.9326C23.6286 27.9342 23.5826 27.9621 23.3796 27.98C23.1627 27.9991 22.8728 28 22.4 28V30ZM23.919 27.6168C23.849 27.7646 23.7441 27.8709 23.6317 27.9326L24.5938 29.686C25.0929 29.4121 25.4852 28.9829 25.7268 28.4722L23.919 27.6168ZM22.4 9C22.8728 9 23.1627 9.0009 23.3796 9.01999C23.5826 9.03785 23.6286 9.06576 23.6317 9.06743L24.5938 7.31405C24.2492 7.12498 23.8939 7.05752 23.5549 7.02769C23.23 6.9991 22.8373 7 22.4 7V9ZM26 10.8C26 10.3253 26.0007 9.91339 25.975 9.57495C25.9486 9.22684 25.89 8.87273 25.7268 8.52784L23.919 9.38319C23.9329 9.41264 23.9629 9.49073 23.9807 9.72625C23.9993 9.97145 24 10.2946 24 10.8H26ZM23.6317 9.06743C23.7441 9.12913 23.849 9.23537 23.919 9.38319L25.7268 8.52784C25.4852 8.0171 25.0929 7.58791 24.5938 7.31405L23.6317 9.06743ZM14.6 7C14.1627 7 13.77 6.9991 13.4451 7.02769C13.1061 7.05752 12.7508 7.12498 12.4062 7.31405L13.3683 9.06743C13.3714 9.06576 13.4174 9.03785 13.6204 9.01999C13.8373 9.0009 14.1272 9 14.6 9V7ZM13 10.8C13 10.2946 13.0007 9.97145 13.0193 9.72625C13.0371 9.49073 13.0671 9.41264 13.081 9.38319L11.2732 8.52784C11.11 8.87273 11.0514 9.22684 11.025 9.57495C10.9993 9.91339 11 10.3253 11 10.8H13ZM12.4062 7.31405C11.9071 7.58791 11.5148 8.0171 11.2732 8.52784L13.081 9.38319C13.151 9.23537 13.2559 9.12913 13.3683 9.06743L12.4062 7.31405ZM18.3223 27.019H18.3304V25.019H18.3223V27.019ZM17.7285 26.019C17.7285 25.7794 17.9258 25.4565 18.3223 25.4565V27.4565C19.1674 27.4565 19.7285 26.7418 19.7285 26.019H17.7285ZM18.3223 25.4565C18.7187 25.4565 18.916 25.7794 18.916 26.019H16.916C16.916 26.7418 17.4771 27.4565 18.3223 27.4565V25.4565ZM18.916 26.019C18.916 26.2586 18.7187 26.5815 18.3223 26.5815V24.5815C17.4771 24.5815 16.916 25.2961 16.916 26.019H18.916ZM18.3223 26.5815C17.9258 26.5815 17.7285 26.2586 17.7285 26.019H19.7285C19.7285 25.2961 19.1674 24.5815 18.3223 24.5815V26.5815ZM14.4953 8.70041L14.9016 10.8879L16.868 10.5227L16.4617 8.33523L14.4953 8.70041ZM15.8848 11.7053H21.5723V9.70532H15.8848V11.7053ZM22.5555 10.8879L22.9617 8.70041L20.9953 8.33523L20.5891 10.5227L22.5555 10.8879Z" fill="currentColor"/><path d="M37 18.5C37 28.7173 28.7173 37 18.5 37C8.28273 37 0 28.7173 0 18.5C0 8.28273 8.28273 0 18.5 0C28.7173 0 37 8.28273 37 18.5ZM1.84748 18.5C1.84748 27.6969 9.30307 35.1525 18.5 35.1525C27.6969 35.1525 35.1525 27.6969 35.1525 18.5C35.1525 9.30307 27.6969 1.84748 18.5 1.84748C9.30307 1.84748 1.84748 9.30307 1.84748 18.5Z" fill="currentColor"/></svg>

<svg xmlns="http://www.w3.org/2000/svg" fill="none" viewBox="0 0 37 37"><path fill="#fff" d="m12.887 28.81.481-.877-.48.876Zm-.71-.765.904-.428-.904.427Zm12.646 0-.904-.428.904.427Zm-.71.764-.481-.876.48.876Zm0-20.618-.481.876.48-.876Zm.71.765-.904.427.904-.427ZM12.887 8.19l.481.876-.48-.876Zm-.71.765.904.427-.904-.427Zm6.145 16.063a1 1 0 1 0 0 2v-2Zm.008 2a1 1 0 1 0 0-2v2Zm-2.445-16.314-.983.183.151.817h.832v-1Zm5.687 0v1h.832l.151-.817-.983-.183ZM14.6 9h7.8V7h-7.8v2Zm9.4 1.8v15.4h2V10.8h-2ZM22.4 28h-7.8v2h7.8v-2ZM13 26.2V10.8h-2v15.4h2Zm1.6 1.8c-.473 0-.763 0-.98-.02-.203-.018-.249-.046-.252-.047l-.962 1.753c.345.189.7.256 1.04.286.324.029.717.028 1.154.028v-2ZM11 26.2c0 .475 0 .887.025 1.225.026.348.085.702.248 1.047l1.808-.855c-.014-.03-.044-.108-.062-.343-.018-.245-.019-.569-.019-1.074h-2Zm2.368 1.733a.695.695 0 0 1-.287-.316l-1.808.855c.242.51.634.94 1.133 1.214l.962-1.753ZM24 26.2c0 .505 0 .829-.02 1.074-.017.235-.047.313-.061.343l1.808.855c.163-.345.222-.699.248-1.047.026-.338.025-.75.025-1.225h-2ZM22.4 30c.437 0 .83 0 1.155-.028.339-.03.694-.097 1.039-.286l-.962-1.753c-.003.001-.05.03-.252.047-.217.02-.507.02-.98.02v2Zm1.519-2.383a.695.695 0 0 1-.287.316l.962 1.753c.499-.274.891-.703 1.133-1.214l-1.808-.855ZM22.4 9c.473 0 .763 0 .98.02.203.018.249.046.252.047l.962-1.753c-.345-.189-.7-.256-1.04-.286C23.23 6.999 22.838 7 22.4 7v2Zm3.6 1.8c0-.475 0-.887-.025-1.225-.026-.348-.085-.702-.248-1.047l-1.808.855c.014.03.044.108.062.343.018.245.019.569.019 1.074h2Zm-2.368-1.733a.694.694 0 0 1 .287.316l1.808-.855a2.692 2.692 0 0 0-1.133-1.214l-.962 1.753ZM14.6 7c-.437 0-.83 0-1.155.028-.339.03-.694.097-1.039.286l.962 1.753c.003-.001.05-.03.252-.047.217-.02.507-.02.98-.02V7ZM13 10.8c0-.505 0-.829.02-1.074.017-.235.047-.313.061-.343l-1.808-.855c-.163.345-.222.699-.248 1.047-.026.338-.025.75-.025 1.225h2Zm-.594-3.486c-.499.274-.891.703-1.133 1.214l1.808.855a.694.694 0 0 1 .287-.316l-.962-1.753Zm5.916 19.705h.008v-2h-.008v2Zm-.593-1c0-.24.197-.563.593-.563v2c.845 0 1.407-.714 1.407-1.437h-2Zm.593-.563c.397 0 .594.323.594.563h-2c0 .723.561 1.438 1.406 1.438v-2Zm.594.563c0 .24-.197.563-.594.563v-2c-.845 0-1.406.714-1.406 1.437h2Zm-.594.563a.579.579 0 0 1-.593-.563h2c0-.723-.562-1.438-1.407-1.438v2ZM14.495 8.7l.407 2.188 1.966-.365-.406-2.188-1.967.365Zm1.39 3.005h5.687v-2h-5.687v2Zm6.67-.817.407-2.188-1.967-.365-.406 2.188 1.966.365Z"/><circle cx="18.5" cy="18.5" r="17.5" stroke="#fff" stroke-width="2"/></svg>
